!!!!SEGMENT: pl-cz--i-33--001-003_haydn-joseph--partita-es-adagio.krn
!!!cenid: 17xx:2179
!!!COM: Haydn, Joseph
!!!COM-rismID: pe55803
!!!CDT: 1732/03/31-1809/05/31
!!!CNT: Austrian
!!!OPR: Partita Es
!!!OTL: Adagio
!!!OMV: 003
!!!PDT:
!!!AGN: Secular
!!!YEC: Copyright 2022 Narodowy Instytut Fryderyka Chopina (https://polishscores.org)
!!!YEM: License CC-BY-4.0 (https://creativecommons.org/licenses/by/4.0)
!!!SMS-siglum: PL-CZ
!!!SMS-shelfmark: I-33
!!!SMS-shelfwork: 001-003 M
!!!SMS-variant:
!!!SMS-altvar:
!!!NIFC-rismSourceID: 300000454
!!!NIFC-rismChildID: 300000454
!!!NIFC-islandoraID: pl-cz:2113
!!!URL-pdf-islandora: https://repozytorium.nifc.pl/islandora/object/pl-cz%3A2113/datastream/PDF/view
!!!URL-scan: https://polish.musicsources.pl/pl/lokalizacje/galeria/rekopisy/625 @EN{Scan on Polish Music Sources Website} @PL{Skany w portalu Dziedzictwo Muzyki Polskiej w otwartym dostępie}
!!!IIIF:
!!!ONB-nifc: UWAGA: części Partity: 1. Moderato, 2. Menuetto, 3. Adagio, 4. Presto
!!!AIN: 2 clars 2 empty 1 fagot
!!!key:
**kern	**dynam	**kern	**dynam	**kern	**dynam	**kern	**dynam	**kern	**dynam
*part5	*	*part4	*	*part3	*	*part2	*	*part1	*
*staff5	*	*staff4	*	*staff3	*	*staff2	*	*staff1	*
*Iempty	*	*Iempty	*	*Ifagot	*	*Iclars	*	*Iclars	*
*I"Cornuo 2do in Dis	*	*I"Cornuo Primo in Dis	*	*I"Fagotto	*	*I"Clarinetto Secundo	*	*I"Clarinetto Primo	*
*I'cor 2	*	*I'cor 1	*	*I'fag	*	*I' cl 2	*	*I'cl 1	*
*>[A,A,B,B]	*>[A,A,B,B]	*>[A,A,B,B]	*>[A,A,B,B]	*>[A,A,B,B]	*>[A,A,B,B]	*>[A,A,B,B]	*>[A,A,B,B]	*>[A,A,B,B]	*>[A,A,B,B]
*>A	*>A	*>A	*>A	*>A	*>A	*>A	*>A	*>A	*>A
*clefG2	*	*clefG2	*	*clefF4	*	*clefG2	*	*clefG2	*
*ITrd-2c-3	*	*ITrd-2c-3	*	*	*	*ITrd1c2	*	*ITrd1c2	*
*k[b-e-a-]	*	*k[b-e-a-]	*	*k[b-e-a-]	*	*k[b-e-a-]	*	*k[b-e-a-]	*
*E-:	*	*E-:	*	*E-:	*	*E-:	*	*E-:	*
*M3/8	*	*M3/8	*	*M3/8	*	*M3/8	*	*M3/8	*
=1	=1	=1	=1	=1	=1	=1	=1	=1	=1
*tremolo	*	*	*	*	*	*	*	*	*
!	!LO:DY:a	!	!LO:DY:a	!LO:TX:a:t=P:problem=błędnie znaki AA- D- G-	!	!	!LO:DY:a	!	!LO:DY:a
8e-/L	p	8ee-\L	p	8EE-/L	.	8g\L	p	8b-\L	p
8e-/	.	8ee-\	.	8EE-/	.	8a-\	.	8cc\	.
8e-/J	.	8ee-\J	.	8EE-/J	.	8g\J	.	8b-\J	.
*Xtremolo	*	*	*	*	*	*	*	*	*
=2	=2	=2	=2	=2	=2	=2	=2	=2	=2
!	!	!	!	!	!	!	!	!	!LO:DY:a:t=fo
8b-/L	.	8ee-\L	.	8BB-\L	.	8f/L	.	8a-/L	f
8ee-/J	.	8gg\J	.	8E-\J	.	8e-/J	.	8g/J	.
8r	.	8r	.	8r	.	8r	.	8r	.
=3	=3	=3	=3	=3	=3	=3	=3	=3	=3
!	!LO:DY:a	!	!	!	!	!	!	!	!LO:DY:a
4.e-/	p	4.ee-\	.	8c\L	.	8e-/L	.	4.e-/	p
.	.	.	.	8B-\	.	8d/	.	.	.
.	.	.	.	8A-\J	.	8c/J	.	.	.
=4	=4	=4	=4	=4	=4	=4	=4	=4	=4
!	!	!	!	!	!	!	!	!LO:TX:a:t=P:problem=mixed beam	!
4.e-/	.	4.ee-\	.	8G\L	.	8B-/L	.	8e-/L	.
.	.	.	.	8A-\	.	8e-/	.	8cc\	.
.	.	.	.	8G\J	.	8e-/J	.	8b-\J	.
!	!	!	!	!	!	!	!	!LO:LB:g=original	!
=5	=5	=5	=5	=5	=5	=5	=5	=5	=5
!	!	!	!LO:DY:a	!	!	!LO:TX:a:t=P:problem=mixed beam	!	!	!
8r	.	8ff\L	f	8F\L	.	8d/L	.	8a-\L	.
8ff\L	.	8aa-\	.	8D\	.	8b-\	.	8aa-\	.
8ee-\J	.	8gg\J	.	8E-\J	.	8b-\J	.	8gg\J	.
=6	=6	=6	=6	=6	=6	=6	=6	=6	=6
!	!	!	!	!LO:TX:a:t=P:problem=mixed beam	!	!	!	!	!
4b-/	.	8gg\L	.	8B-\L	.	4a-\	.	4ff\	.
.	.	8ff\J	.	8BB-/	.	.	.	.	.
8g/	.	8r	.	8E-/J	.	8g\	.	8ee-\	.
!	!	!	!	!	!	!LO:LB:g=original	!	!	!
=7	=7	=7	=7	=7	=7	=7	=7	=7	=7
*	*	*	*	*tremolo	*	*	*	*	*
!	!	!	!	!	!	!	!	!LO:TX:a:t=P:problem=mixed beam	!
8b-\L	.	8ff\L	.	8BB-/L	.	8.f/L	.	8dd\L	.
8ee-\	.	8gg\	.	8BB-/	.	.	.	8.ee-\	.
.	.	.	.	.	.	16g/K	.	.	.
8ee-\J	.	8gg\J	.	8BB-/J	.	8e-/J	.	.	.
.	.	.	.	.	.	.	.	16g/Jk	.
*	*	*	*	*Xtremolo	*	*	*	*	*
!LO:LB:g=original	!	!	!	!	!	!	!	!	!
=8	=8	=8	=8	=8	=8	=8	=8	=8	=8
!LO:TX:a:t=P:problem=mixed beam	!	!	!	!	!	!	!	!	!
8ff\L	.	8gg\L	.	8BB-/L	.	8e-/L	.	8g/L	.
8b-/J	.	8ff\J	.	16BB-/L	.	8d/J	.	8f/J	.
.	.	.	.	16D/	.	.	.	.	.
8r	.	8r	.	16F/	.	8r	.	8r	.
!	!	!	!	!LO:TX:a:t=P:problem=wykreślony takt	!	!	!	!	!
.	.	.	.	16B-/JJ	.	.	.	.	.
!	!	!LO:LB:g=original	!	!LO:LB:g=original	!	!	!	!	!
=9	=9	=9	=9	=9	=9	=9	=9	=9	=9
*	*	*	*	*	*	*Xtuplet	*	*Xtuplet	*
8b-/	.	8ff\	.	4AA-/	.	24d/LL	.	24f/LL	.
.	.	.	.	.	.	24e-/	.	24g/	.
.	.	.	.	.	.	24d/JJ	.	24f/JJ	.
4r	.	8r	.	.	.	24f/LL	.	24b-\LL	.
.	.	.	.	.	.	24g/	.	24cc\	.
.	.	.	.	.	.	24f/JJ	.	24b-\JJ	.
.	.	8r	.	8r	.	24b-\LL	.	24dd\LL	.
.	.	.	.	.	.	24cc\	.	24ee-\	.
.	.	.	.	.	.	24b-\JJ	.	24dd\JJ	.
=10	=10	=10	=10	=10	=10	=10	=10	=10	=10
!	!	!	!	!LO:TX:a:t=P:problem=mixed beam	!LO:DY:a:rj	!LO:TX:a:t=P:problem=mixed beam	!LO:DY:a	!	!
8b-/	.	8ff\	.	16BB-/LL	p	16dd\LL	f	8ff\	.
!	!	!	!	!	!	!	!LO:DY:a	!	!
.	.	.	.	16B-\	.	16d/	p	.	.
4r	.	8r	.	16d\	.	16f/	.	8r	.
.	.	.	.	16B-\	.	16d/	.	.	.
.	.	8r	.	16d\	.	16f/	.	8r	.
.	.	.	.	16B-\JJ	.	16d/JJ	.	.	.
=11	=11	=11	=11	=11	=11	=11	=11	=11	=11
!	!	!	!	!LO:TX:a:t=P:problem=mixed beam	!	!LO:TX:a:t=P:problem=mixed beam	!LO:DY:a	!	!
8ff\	.	8ff\	.	16FF/LL	.	16cc\LL	f	8ee-\	.
!	!	!	!	!	!	!	!LO:DY:a	!	!
.	.	.	.	16An\	.	16c/	p	.	.
8r	.	8r	.	16c\	.	16e-/	.	8r	.
.	.	.	.	16A\	.	16c/	.	.	.
8r	.	8r	.	16c\	.	16e-/	.	8r	.
.	.	.	.	16A\JJ	.	16c/JJ	.	.	.
=12	=12	=12	=12	=12	=12	=12	=12	=12	=12
!	!	!	!	!	!	!	!	!	!LO:DY:a
8b-/	.	8ff\	.	8AA-/	.	16r	.	16r	p
.	.	.	.	.	.	16b-\LL	.	16dd\LL	.
8r	.	8r	.	8r	.	16dd\	.	16ff\	.
.	.	.	.	.	.	16b-\	.	16dd\	.
8r	.	8r	.	8r	.	16dd\	.	16ff\	.
.	.	.	.	.	.	16b-\JJ	.	16dd\JJ	.
=13	=13	=13	=13	=13	=13	=13	=13	=13	=13
8ff\	.	8ff\	.	8FF/	.	16r	.	16r	.
.	.	.	.	.	.	16a\LL	.	16cc\LL	.
8r	.	8r	.	8r	.	16cc\	.	16ee-\	.
.	.	.	.	.	.	16a\	.	16cc\	.
8r	.	8r	.	8r	.	16cc\	.	16ee-\	.
.	.	.	.	.	.	16a\JJ	.	16cc\JJ	.
!	!	!	!	!	!	!	!	!LO:LB:g=original	!
=14	=14	=14	=14	=14	=14	=14	=14	=14	=14
!	!	!	!	!	!	!	!LO:DY:a	!	!LO:DY:a
4.b-/	.	4.ff\	.	8BB-\L|	.	16b-\LL	f	16dd\LL	f
.	.	.	.	.	.	16dd\JJ	.	16bb-\JJ	.
.	.	.	.	(16BB-\L	.	4dd\	.	4bb-\	.
.	.	.	.	16D\	.	.	.	.	.
.	.	.	.	16F\)	.	.	.	.	.
.	.	.	.	16B-\JJ	.	.	.	.	.
=15	=15	=15	=15	=15	=15	=15	=15	=15	=15
!	!	!	!	!LO:TX:a:t=P:problem=mixed beam	!	!	!	!	!
4.ee-\	.	4.gg\	.	8E-\L	.	8b-\	.	16ff#X\LL	.
.	.	.	.	.	.	.	.	16gg\JJ	.
.	.	.	.	16EE-/L	.	4b-\	.	4gg\	.
.	.	.	.	16GG/	.	.	.	.	.
.	.	.	.	16BB-/	.	.	.	.	.
.	.	.	.	16E-/JJ	.	.	.	.	.
!	!	!	!	!	!	!LO:LB:g=original	!	!	!
=16	=16	=16	=16	=16	=16	=16	=16	=16	=16
!	!	!	!LO:DY:a	!	!LO:DY:a	!	!LO:DY:a	!	!
16dd\LL	.	16ff\LL	p	16D\LL	p	8b-\L	p	16ff\LL	.
16ee-\JJ	.	16gg\J	.	16E-\JJ	.	.	.	32gg\L	.
.	.	.	.	.	.	.	.	32ee-\JJJ	.
!	!	!	!	!LO:TX:a:t=P:problem=mixed beam	!	!	!	!	!
8ff\L	.	8ff\	.	8F\L	.	8b-\	.	8dd\L	.
8ff\J	.	8ff\J	.	8FF/J	.	8a\J	.	8cc\J	.
=17	=17	=17	=17	=17	=17	=17	=17	=17	=17
!	!	!	!	!	!	!	!LO:DY:a	!	!LO:DY:a
8.b-/L	.	8.ff\L	.	8BB-\L	.	16b-\LL	f	16b-\LL	f
.	.	.	.	.	.	16dd\JJ	.	16bb-\JJ	.
.	.	.	.	16BB-\L	.	4dd\	.	4bb-\	.
!	!	!	!LO:DY:a	!	!	!	!	!	!
16b-/L	.	16ff\L	fp	16D\	.	.	.	.	.
16b-/	.	16ff\	.	16F\	.	.	.	.	.
16b-/JJ	.	16ff\JJ	.	16B-\JJ	.	.	.	.	.
!	!	!	!	!LO:LB:g=original	!	!	!	!	!
=18	=18	=18	=18	=18	=18	=18	=18	=18	=18
!	!	!	!LO:DY:a	!LO:TX:a:t=P:problem=mixed beam	!	!	!	!	!
8.ee-\L	.	8.gg\L	fp	8E-\L	.	4b-\	.	16ff#X\LL	.
.	.	.	.	.	.	.	.	16gg\JJ	.
.	.	.	.	16EE-/L	.	.	.	4gg\	.
16ee-\L	.	16gg\L	.	16GG/	.	.	.	.	.
16ee-\	.	16gg\	.	16BB-/	.	8b-\	.	.	.
16ee-\JJ	.	16gg\JJ	.	16E-/JJ	.	.	.	.	.
=19	=19	=19	=19	=19	=19	=19	=19	=19	=19
!	!	!	!LO:DY:a:t=fo	!	!	!	!	!	!
16dd\LL	.	16ff\LL	f	16D\LL	.	8b-\L	.	16ff\LL	.
16ee-\J	.	16gg\J	.	16E-\JJ	.	.	.	32gg\L	.
.	.	.	.	.	.	.	.	32ee-\JJJ	.
!	!	!	!	!LO:TX:a:t=P:problem=mixed beam	!	!	!	!	!
8ff\	.	8ff\	.	8F\L	.	8b-\	.	8dd\L	.
8ff\J	.	8ff\J	.	8FF/J	.	8a\J	.	8cc\J	.
=20	=20	=20	=20	=20	=20	=20	=20	=20	=20
!	!	!	!	!	!	!LO:TX:a:t=P:problem=mixed beam	!	!	!
4b-/	.	4ff\	.	8BB-/L	.	8b-\L	.	8b-\L	.
.	.	.	.	8BB-/J	.	8B-/J	.	8b-\J	.
8r	.	8r	.	8r	.	8r	.	8r	.
!	!	!	!	!	!	!	!	!LO:LB:g=original	!
=21:|!|:	=21:|!|:	=21:|!|:	=21:|!|:	=21:|!|:	=21:|!|:	=21:|!|:	=21:|!|:	=21:|!|:	=21:|!|:
*>B	*>B	*>B	*>B	*>B	*>B	*>B	*>B	*>B	*>B
*	*	*	*	*tremolo	*	*	*	*	*
4.gg\	.	4.bb-\	.	8EEn/L	.	8d-X/L	.	4.b-\	.
.	.	.	.	8EE/	.	8d-/	.	.	.
.	.	.	.	8EE/J	.	8d-/J	.	.	.
*	*	*	*	*Xtremolo	*	*	*	*	*
=22	=22	=22	=22	=22	=22	=22	=22	=22	=22
8ff\	.	8aa-\	.	8FF/	.	8c/	.	16a-\LL	.
.	.	.	.	.	.	.	.	16cc\	.
4r	.	8r	.	4r	.	8r	.	16dd\	.
.	.	.	.	.	.	.	.	16eeX\	.
.	.	8r	.	.	.	8r	.	16ff\	.
.	.	.	.	.	.	.	.	16gg\JJ	.
=23	=23	=23	=23	=23	=23	=23	=23	=23	=23
8r	.	8r	.	8r	.	8r	.	8aa-\	.
8dd\L	.	8ff\L	.	8D\L	.	8f/L	.	4a-/	.
8b-\J	.	8ff\J	.	8D\J	.	8f/J	.	.	.
=24	=24	=24	=24	=24	=24	=24	=24	=24	=24
8ee-\	.	8gg\	.	8E-X\	.	8e-/	.	16g\LL	.
.	.	.	.	.	.	.	.	16b-\	.
4r	.	8r	.	4r	.	16r	.	16cc\	.
.	.	.	.	.	.	16b-\LL	.	16dd\	.
.	.	8r	.	.	.	16cc\	.	16ee-\	.
.	.	.	.	.	.	16dd\JJ	.	16ff\JJ	.
=25	=25	=25	=25	=25	=25	=25	=25	=25	=25
16r	.	16r	.	8EE-/	.	8ee-\	.	8gg\	.
16ee-\LL	.	16gg\LL	.	.	.	.	.	.	.
16gg\	.	16bb-\	.	4r	.	8r	.	4r	.
16ee-\	.	16gg\	.	.	.	.	.	.	.
16gg\	.	16bb-\	.	.	.	8r	.	.	.
16ee-\JJ	.	16gg\JJ	.	.	.	.	.	.	.
!LO:LB:g=original	!	!	!	!	!	!	!	!	!
=26	=26	=26	=26	=26	=26	=26	=26	=26	=26
16r	.	16r	.	8BB-/	.	8dd\	.	8ff\	.
16dd\LL	.	16ff\LL	.	.	.	.	.	.	.
16ff\	.	16aa-\	.	4r	.	8r	.	4r	.
16dd\	.	16ff\	.	.	.	.	.	.	.
16ff\	.	16aa-\	.	.	.	8r	.	.	.
16dd\JJ	.	16ff\JJ	.	.	.	.	.	.	.
!	!	!LO:LB:g=original	!	!	!	!LO:LB:g=original	!	!	!
=27	=27	=27	=27	=27	=27	=27	=27	=27	=27
8ee-\	.	8gg\	.	4E-\	.	16g\LL	.	16ee-\LL	.
.	.	.	.	.	.	16b-\	.	16gg\	.
8r	.	8r	.	.	.	16a-\	.	16ff\	.
.	.	.	.	.	.	16g\	.	16ee-\	.
16b-/LL	.	16ff\LL	.	8EE-/	.	16f\	.	16dd\	.
16dd/JJ	.	16gg\JJ	.	.	.	16g\JJ	.	16ee-\JJ	.
=28	=28	=28	=28	=28	=28	=28	=28	=28	=28
!	!	!	!	!LO:TX:a:t=P:problem=mixed beam	!	!	!	!	!
8ee-/L	.	8gg\L	.	16BB-/LL	.	8e-/L	.	8g/L	.
.	.	.	.	16B-\J	.	.	.	.	.
8b-/J	.	8ff\J	.	8BB-/J	.	8d/J	.	8f/J	.
!	!	!	!	!	!	!LO:TX:a:t=vi	!	!	!
8r	.	8r	.	8r	.	8r	.	8r	.
=29	=29	=29	=29	=29	=29	=29	=29	=29	=29
*	*	*	*	*tremolo	*	*	*	*	*
!LO:TX:a:t=2.	!	!	!	!	!LO:DY:a	!LO:TX:a:t=de	!	!	!LO:DY:a
!LO:N:vis=0	!	!LO:N:vis=0	!	!	!	!	!	!	!
2.r	.	2.r	.	8E-\L	p	8g/L	.	8b-\L	p
.	.	.	.	8E-\	.	8a-X/	.	8cc-X\	.
.	.	.	.	8E-\J	.	8g/J	.	8b-\J	.
!	!	!	!	!	!	!	!	!LO:PB:g=original	!
=30	=30	=30	=30	=30	=30	=30	=30	=30	=30
.	.	.	.	8B-\L	.	8f/L	.	8a-/L	.
.	.	.	.	8B-\	.	8e-/	.	8g-X/	.
.	.	.	.	8B-\J	.	8d/J	.	8f/J	.
*	*	*	*	*Xtremolo	*	*	*	*	*
=31	=31	=31	=31	=31	=31	=31	=31	=31	=31
!	!LO:DY:a	!	!	!	!	!	!	!	!
4.e-/	p	4.ee-\	.	8Bn\L	.	8e-/L	.	4.e-/	.
.	.	.	.	8B-X\	.	8d-X/	.	.	.
.	.	.	.	8A-\J	.	8c-X/J	.	.	.
=32	=32	=32	=32	=32	=32	=32	=32	=32	=32
!	!	!	!	!	!	!	!	!LO:TX:a:t=P:problem=mixed beam	!
8e-/	.	8ee-\	.	8G-X\L	.	8B-/L	.	8e-/L	.
4r	.	8r	.	8D\	.	8a-/	.	8cc-X\	.
.	.	8r	.	8E-\J	.	8g-X/J	.	8b-\J	.
=33	=33	=33	=33	=33	=33	=33	=33	=33	=33
*	*	*	*	*tremolo	*	*	*	*	*
!	!	!	!	!	!	!	!	!LO:TX:a:t=P:problem=mixed beam	!
4.B-/	.	4.b-/	.	8BB-/L	.	8f/L	.	8dd\L	.
.	.	.	.	8BB-/	.	8g-X/	.	8ee-\	.
.	.	.	.	8BB-/J	.	8e-/J	.	8g-X/J	.
*	*	*	*	*Xtremolo	*	*	*	*	*
=34	=34	=34	=34	=34	=34	=34	=34	=34	=34
8B-/L	.	8b-/L	.	8BB-/L	.	8e-/L	.	8g-X/L	.
8B-/J	.	8b-/J	.	8BBB-/J	.	8d/J	.	8f/J	.
8r	.	8r	.	8r	.	8r	.	8r	.
=35	=35	=35	=35	=35	=35	=35	=35	=35	=35
!	!	!	!	!	!LO:DY:a	!	!LO:DY:a	!	!LO:DY:a
4e-/	.	4ee-\	.	4EE-/	f	24gn\LL	f	24b-\LL	f
.	.	.	.	.	.	24a-\	.	24ccn\	.
.	.	.	.	.	.	24g\JJ	.	24b-\JJ	.
.	.	.	.	.	.	24b-\LL	.	24ee-\LL	.
.	.	.	.	.	.	24cc\	.	24ff\	.
.	.	.	.	.	.	24b-\JJ	.	24ee-\JJ	.
8r	.	8r	.	8r	.	24ee-\LL	.	24gg\LL	.
.	.	.	.	.	.	24ff\	.	24aa-\	.
.	.	.	.	.	.	24ee-\JJ	.	24gg\JJ	.
=36	=36	=36	=36	=36	=36	=36	=36	=36	=36
16r	.	16r	.	8E-\	.	8gg\	.	8bb-\	.
16ee-\LL	.	16gg\LL	.	.	.	.	.	.	.
16gg\	.	16bb-\	.	8r	.	4r	.	4r	.
16ee-\	.	16gg\	.	.	.	.	.	.	.
16gg\	.	16bb-\	.	8r	.	.	.	.	.
16ee-\JJ	.	16gg\JJ	.	.	.	.	.	.	.
=37	=37	=37	=37	=37	=37	=37	=37	=37	=37
16r	.	16r	.	8BB-/	.	8ff\	.	8aa-\	.
16dd-X\LL	.	16ff\LL	.	.	.	.	.	.	.
16ff\	.	16aa-\	.	8r	.	4r	.	4r	.
16dd-\	.	16ff\	.	.	.	.	.	.	.
16ff\	.	16aa-\	.	8r	.	.	.	.	.
16dd-\JJ	.	16ff\JJ	.	.	.	.	.	.	.
!	!	!	!	!	!	!	!	!LO:LB:g=original	!
=38	=38	=38	=38	=38	=38	=38	=38	=38	=38
!	!	!	!	!	!	!LO:TX:a:t=P:problem=mixed beam	!LO:DY:a	!LO:TX:a:t=P:problem=mixed beam	!
8ee-\	.	8gg\	.	8E-\	.	16ee-\LL	p	16gg\LL	.
.	.	.	.	.	.	16e-/	.	16g/	.
4r	.	8r	.	8r	.	16g/	.	16b-/	.
.	.	.	.	.	.	16e-/	.	16g/	.
.	.	8r	.	8r	.	16g/	.	16b-/	.
.	.	.	.	.	.	16e-/JJ	.	16g/JJ	.
=39	=39	=39	=39	=39	=39	=39	=39	=39	=39
8b-/	.	8ff\	.	8BB-/	.	16r	.	16r	.
.	.	.	.	.	.	16d/LL	.	16f/LL	.
4r	.	8r	.	8r	.	16f/	.	16a-/	.
.	.	.	.	.	.	16d/	.	16f/	.
.	.	8r	.	8r	.	16f/	.	16a-/	.
.	.	.	.	.	.	16d/JJ	.	16f/JJ	.
=40	=40	=40	=40	=40	=40	=40	=40	=40	=40
*	*	*	*	*	*	*tremolo	*	*	*
!	!LO:DY:a:t=fo	!	!	!LO:TX:a:t=P:problem=mixed beam	!	!	!LO:DY:a:t=fo	!	!LO:DY:a
4.e-/	f	4.ee-\	.	8E-\L	.	8B-/L	f	16g\LL	f
.	.	.	.	.	.	.	.	16ee-\JJ	.
.	.	.	.	8GG/	.	8B-/	.	4ee-\	.
.	.	.	.	8GG/J	.	8B-/J	.	.	.
*	*	*	*	*	*	*Xtremolo	*	*	*
=41	=41	=41	=41	=41	=41	=41	=41	=41	=41
*	*	*	*	*tremolo	*	*	*	*	*
!	!	!	!	!	!LO:DY:a	!	!	!	!
4.e-/	.	4.ee-\	.	8AA-/L	p	8c/L	.	16bX\LL	.
!	!	!	!	!	!	!	!	!	!LO:DY:a
.	.	.	.	.	.	.	.	16cc\JJ	p
.	.	.	.	8AA-/	.	8e-/	.	4cc\	.
.	.	.	.	8AA-/J	.	8e-/J	.	.	.
*	*	*	*	*Xtremolo	*	*	*	*	*
!	!	!	!	!	!	!LO:LB:g=original	!	!	!
=42	=42	=42	=42	=42	=42	=42	=42	=42	=42
!LO:TX:a:t=P:problem=mixed beam	!LO:DY:a	!	!LO:DY:a	!	!	!	!LO:DY:a	!	!
8e-/L	p	16.ee-\LL	p	16GG/LL	.	8e-/L	p	16b-X\LL	.
.	.	.	.	16AA-/JJ	.	.	.	32cc\L	.
.	.	32aa-\JJk	.	.	.	.	.	32a-\JJJ	.
8ee-\	.	8gg\L	.	8BB-/L	.	8e-/	.	8g/L	.
8b-\J	.	8ff\J	.	8BB-/J	.	8d/J	.	8f/J	.
=43	=43	=43	=43	=43	=43	=43	=43	=43	=43
!	!LO:DY:a	!	!LO:DY:a	!	!	!	!LO:DY:a	!	!LO:DY:a
4.g/	f	4.ee-\	f	8EE-/L	.	16B-/LL	fp	16gg\LL	f
.	.	.	.	.	.	16e-/J	.	16ee-\JJ	.
.	.	.	.	16EE-/L	.	8g/	.	4ee-\	.
.	.	.	.	16GG/	.	.	.	.	.
.	.	.	.	16BB-/	.	8g/J	.	.	.
.	.	.	.	16E-/JJ	.	.	.	.	.
!	!	!	!	!LO:LB:g=original	!	!	!	!	!
=44	=44	=44	=44	=44	=44	=44	=44	=44	=44
!	!LO:DY:a	!	!LO:DY:a	!	!LO:DY:a	!	!LO:DY:a	!	!
4.e-/	p	4.ee-\	p	8AA-/L	p	16c/LL	fp	16ee-\LL	.
.	.	.	.	.	.	16e-/J	.	16cc\JJ	.
.	.	.	.	16AA-/L	.	8a-/	.	4cc\	.
.	.	.	.	16C/	.	.	.	.	.
.	.	.	.	16E-/	.	8a-/J	.	.	.
.	.	.	.	16A-/JJ	.	.	.	.	.
.	.	.	.	.	.	.	.	16qqdd/LL	.
.	.	.	.	.	.	.	.	16qqee-/JJ	.
!	!	!	!	!	!	!	!	!LO:LB:g=original	!
=45	=45	=45	=45	=45	=45	=45	=45	=45	=45
!LO:TX:a:t=P:problem=mixed beam	!	!	!	!	!	!	!	!	!
.	.	.	.	.	.	8qqb-/	.	.	.
!	!LO:DY:a:t=fo	!	!	!	!	!	!	!	!
8e-/L	f	8ee-\L	.	8AA-/L	.	16a-\LL	.	16cc\LL	.
.	.	.	.	.	.	32g\L	.	32b-\L	.
.	.	.	.	.	.	32f\JJJ	.	32a-\JJJ	.
8ee-\	.	8gg\	.	8BB-/	.	8e-/L	.	8g/L	.
8b-\J	.	8ff\J	.	8BBB-/J	.	8d/J	.	8f/J	.
=46	=46	=46	=46	=46	=46	=46	=46	=46	=46
!	!	!	!	!LO:TX:a:t=P:problem=mixed beam	!	!	!	!	!
4g/	.	8ee-\	.	8EE-;</L	.	8e-/	.	4e-/	.
.	.	8r	.	8E-\J	.	4r	.	.	.
!	!	!	!	!LO:TX:b:i:t=Verte Finale \nPreſto	!	!	!	!	!
8r	.	8r	.	8r	.	.	.	8r	.
=:|!	=:|!	=:|!	=:|!	=:|!	=:|!	=:|!	=:|!	=:|!	=:|!
*-	*-	*-	*-	*-	*-	*-	*-	*-	*-
!!!system-decoration: [(s1,s2,s3,s4,s5)]
!!!RDF**kern: > = above
!!!RDF**kern: < = below
!!!RDF**kern: | = vertical stroke
!!!ENC: Berenika Jozajtis
!!!END: 2021-06-25
!!!ENC: Marta Lawrence
!!!END: 2021-06-28
